www/assets/icons/60fps_select.svg

<svg xmlns="http://www.w3.org/2000/svg" width="24" height="24" viewBox="0 0 24 24" fill='currentColor'><path d="M18 5v6h-3V5zm0-2h-3c-1.1 0-2 .9-2 2v6c0 1.1.9 2 2 2h3c1.1 0 2-.9 2-2V5c0-1.1-.9-2-2-2m-7 2V3H6c-1.1 0-2 .9-2 2v6c0 1.1.9 2 2 2h3c1.1 0 2-.9 2-2V9c0-1.1-.9-2-2-2H6V5zM9 9v2H6V9zM5 21H3v-5h2zm4 0H7v-5h2zm4 0h-2v-5h2zm8 0h-6v-5h6z"/></svg>

<svg width="24" height="24" viewBox="0 0 24 24" xmlns="http://www.w3.org/2000/svg" fill='currentColor'><path d="M18 5V11H15V5H18ZM18 3H15C13.9 3 13 3.9 13 5V11C13 12.1 13.9 13 15 13H18C19.1 13 20 12.1 20 11V5C20 3.9 19.1 3 18 3ZM11 5V3H6C4.9 3 4 3.9 4 5V11C4 12.1 4.9 13 6 13H9C10.1 13 11 12.1 11 11V9C11 7.9 10.1 7 9 7H6V5H11ZM9 9V11H6V9H9ZM5 21H3V16H5V21ZM9 21H7V16H9V21ZM13 21H11V16H13V21ZM21 21H15V16H21V21Z"/></svg>
